icons/arrow-down-left-24.svg

<svg xmlns="http://www.w3.org/2000/svg" width="24" height="24" viewBox="0 0 24 24"><path d="M5.75 8.5a.75.75 0 01.75.75v7.19L16.72 6.22a.751.751 0 011.042.018.751.751 0 01.018 1.042L7.56 17.5h7.19a.75.75 0 010 1.5h-9a.75.75 0 01-.75-.75v-9a.75.75 0 01.75-.75z"/></svg>

<svg xmlns="http://www.w3.org/2000/svg" width="24" height="24" viewBox="0 0 24 24">
  <defs/>
  <path d="M5.75,8.5 C6.164,8.5 6.5,8.836 6.5,9.25 L6.5,16.44 L16.72,6.22 C17.016,5.945 17.476,5.953 17.762,6.238 C18.047,6.524 18.055,6.984 17.78,7.28 L7.56,17.5 L14.75,17.5 C15.164,17.5 15.5,17.836 15.5,18.25 C15.5,18.664 15.164,19 14.75,19 L5.75,19 C5.336,19 5,18.664 5,18.25 L5,9.25 C5,8.836 5.336,8.5 5.75,8.5 Z"/>
</svg>
